SVG-Logos/Software/notion-wordmark.svg

<svg xmlns="http://www.w3.org/2000/svg" width="116" height="40" viewBox="0 0 116 40" fill="none">
  <g clip-path="url(#clip0_445_12943)">
    <path d="M2.73183 1.72529L24.8405 0.06395C27.5242 -0.191641 28.227 5.22435e-05 29.9523 1.21411L37.0449 6.19814C38.1951 7.02881 38.5785 7.2844 38.5785 8.24286V35.5272C38.5785 37.2524 37.9395 38.2748 35.767 38.4026L10.0801 39.9362C8.41873 40.0001 7.65195 39.8084 6.82128 38.7221L1.64556 32.0128C0.687097 30.7349 0.303711 29.8403 0.303711 28.754V4.4729C0.303711 3.06714 0.942689 1.85309 2.73183 1.72529Z" fill="white"/>
    <path fill-rule="evenodd" clip-rule="evenodd" d="M24.8405 0.06395L2.73183 1.72529C0.942689 1.85309 0.303711 3.06714 0.303711 4.4729V28.754C0.303711 29.8403 0.687097 30.7988 1.64556 32.0128L6.82128 38.786C7.65195 39.8723 8.48263 40.1278 10.0801 40L35.767 38.4665C37.9395 38.3387 38.5785 37.3163 38.5785 35.5911V8.24286C38.5785 7.34829 38.259 7.0927 37.1727 6.32593C37.1088 6.26203 37.0449 6.26203 36.981 6.19814L29.9523 1.27801C28.2909 5.22435e-05 27.5881 -0.127743 24.8405 0.06395ZM10.6551 7.79558C8.54652 7.92337 8.09924 7.98727 6.88518 6.96491L3.88199 4.60069C3.5625 4.2812 3.69029 3.89782 4.52096 3.83392L25.7989 2.30037C27.5881 2.17258 28.4826 2.74766 29.1855 3.32274L32.8277 5.94254C33.0194 6.00644 33.4028 6.45373 32.8916 6.45373L10.9107 7.79558H10.6551ZM8.22703 35.3355V12.1406C8.22703 11.1183 8.54652 10.671 9.44109 10.6071L34.6807 9.13743C35.5114 9.07353 35.8948 9.58472 35.8948 10.6071V33.6103C35.8948 34.6326 35.7031 35.4633 34.3612 35.5272L10.2079 36.933C8.86601 37.0608 8.22703 36.5496 8.22703 35.3355ZM32.0609 13.4186C32.1887 14.1215 32.0609 14.8243 31.358 14.8882L30.2079 15.1438V32.2684C29.1855 32.8435 28.2909 33.0991 27.5242 33.0991C26.3101 33.0991 25.9906 32.7157 25.0321 31.5655L17.3644 19.5528V31.1183L19.7925 31.6933C19.7925 31.6933 19.7925 33.0991 17.8756 33.0991L12.5082 33.4186C12.3804 33.0991 12.5082 32.3323 13.0194 32.2045L14.4251 31.8211V16.4857L12.5082 16.294C12.3804 15.5911 12.7638 14.5687 13.85 14.5048L19.6008 14.1215L27.5242 26.262V15.5272L25.4794 15.2716C25.3516 14.4409 25.9267 13.802 26.6935 13.7381L32.0609 13.4186Z" fill="black"/>
    <path d="M55.5753 28.3707V17.8275H55.767L63.3708 28.3707H65.7989V12.8435H63.1152V23.3866H62.9235L55.3197 12.8435H52.8916V28.3707H55.5753ZM73.275 28.5624C76.7893 28.5624 78.898 26.262 78.898 22.4282C78.898 18.6582 76.7254 16.294 73.275 16.294C69.7606 16.294 67.652 18.5943 67.652 22.4282C67.5881 26.262 69.7606 28.5624 73.275 28.5624ZM73.275 26.3259C71.4219 26.3259 70.3357 24.9202 70.3357 22.4282C70.3357 20.0001 71.4219 18.5304 73.275 18.5304C75.128 18.5304 76.2143 19.9362 76.2143 22.4282C76.1504 24.9202 75.128 26.3259 73.275 26.3259ZM81.3261 13.7381V16.6774H79.473V18.786H81.3261V25.1758C81.3261 27.4761 82.4123 28.3707 85.096 28.3707C85.6072 28.3707 86.1184 28.3068 86.5018 28.2429V26.1981C86.1823 26.262 85.9906 26.262 85.6072 26.262C84.521 26.262 84.0098 25.7509 84.0098 24.6007V18.8499H86.5018V16.7413H84.0098V13.802H81.3261V13.7381ZM88.0992 28.3707H90.783V16.6135H88.0992V28.3707ZM89.4411 14.6326C90.3357 14.6326 91.0385 13.9298 91.0385 13.0352C91.0385 12.1406 90.3357 11.4378 89.4411 11.4378C88.5465 11.4378 87.8437 12.1406 87.8437 13.0352C87.8437 13.9298 88.5465 14.6326 89.4411 14.6326ZM98.0673 28.5624C101.582 28.5624 103.69 26.262 103.69 22.4282C103.69 18.6582 101.518 16.294 98.0673 16.294C94.5529 16.294 92.4443 18.5943 92.4443 22.4282C92.3804 26.262 94.5529 28.5624 98.0673 28.5624ZM98.0673 26.3259C96.2143 26.3259 95.128 24.9202 95.128 22.4282C95.128 20.0001 96.2143 18.5304 98.0673 18.5304C99.9203 18.5304 101.007 19.9362 101.007 22.4282C100.943 24.9202 99.9203 26.3259 98.0673 26.3259ZM105.288 28.3707H107.971V21.4697C107.971 19.7445 108.994 18.6582 110.527 18.6582C112.125 18.6582 112.892 19.5528 112.892 21.3419V28.3068H115.575V20.7029C115.575 17.8914 114.17 16.294 111.55 16.294C109.824 16.294 108.61 17.1247 108.035 18.4026H107.844V16.6135H105.288V28.3707Z" fill="black"/>
  </g>
  <defs>
    <clipPath id="clip0_445_12943">
      <rect width="115.272" height="40" fill="white" transform="translate(0.303711)"/>
    </clipPath>
  </defs>
</svg>

<svg xmlns="http://www.w3.org/2000/svg" fill="none" viewBox="0 0 116 40"><g clip-path="url(#a)"><path fill="#fff" d="M2.732 1.725 24.84.064c2.684-.256 3.387-.064 5.112 1.15l7.093 4.984c1.15.83 1.533 1.086 1.533 2.045v27.284c0 1.725-.639 2.748-2.811 2.876L10.08 39.936c-1.661.064-2.428-.128-3.259-1.214l-5.175-6.71C.687 30.736.304 29.84.304 28.755V4.473c0-1.406.639-2.62 2.428-2.748Z"/><path fill="#000" fill-rule="evenodd" d="M24.84.064 2.732 1.725C.942 1.853.304 3.067.304 4.473v24.281c0 1.086.383 2.045 1.342 3.259l5.175 6.773c.831 1.086 1.662 1.342 3.26 1.214l25.686-1.533c2.172-.128 2.811-1.15 2.811-2.876V8.243c0-.895-.319-1.15-1.405-1.917-.064-.064-.128-.064-.192-.128l-7.029-4.92C28.291 0 27.588-.128 24.84.064ZM10.655 7.796c-2.108.127-2.556.191-3.77-.831L3.882 4.6c-.32-.32-.192-.703.639-.767L25.799 2.3c1.79-.127 2.684.448 3.387 1.023l3.642 2.62c.191.063.575.51.064.51L10.91 7.797h-.256Zm-2.428 27.54V12.14c0-1.023.32-1.47 1.214-1.534l25.24-1.47c.83-.063 1.214.448 1.214 1.47V33.61c0 1.023-.192 1.853-1.534 1.917l-24.153 1.406c-1.342.128-1.981-.383-1.981-1.597Zm23.834-21.917c.128.702 0 1.405-.703 1.47l-1.15.255v17.124c-1.022.575-1.917.831-2.684.831-1.214 0-1.533-.383-2.492-1.533l-7.668-12.013v11.565l2.428.575s0 1.406-1.916 1.406l-5.368.32c-.128-.32 0-1.087.511-1.214l1.406-.384V16.486l-1.917-.192c-.128-.703.256-1.725 1.342-1.79l5.75-.383 7.924 12.141V15.527l-2.045-.255c-.127-.831.448-1.47 1.215-1.534l5.367-.32Z" clip-rule="evenodd"/><path fill="#000" d="M55.575 28.37V17.828h.192l7.604 10.544h2.428V12.844h-2.684v10.543h-.192L55.32 12.844h-2.428V28.37h2.683Zm17.7.192c3.514 0 5.623-2.3 5.623-6.134 0-3.77-2.173-6.134-5.623-6.134-3.514 0-5.623 2.3-5.623 6.134-.064 3.834 2.109 6.134 5.623 6.134Zm0-2.236c-1.853 0-2.94-1.406-2.94-3.898 0-2.428 1.087-3.898 2.94-3.898s2.94 1.406 2.94 3.898c-.065 2.492-1.087 3.898-2.94 3.898Zm8.051-12.588v2.94h-1.853v2.108h1.853v6.39c0 2.3 1.086 3.195 3.77 3.195.511 0 1.022-.064 1.406-.128v-2.045c-.32.064-.511.064-.895.064-1.086 0-1.597-.511-1.597-1.661V18.85h2.492V16.74H84.01v-2.939h-2.684v-.064ZM88.1 28.371h2.684V16.613h-2.684v11.758Zm1.342-13.738c.895 0 1.597-.703 1.597-1.598 0-.894-.702-1.597-1.597-1.597s-1.597.703-1.597 1.597c0 .895.703 1.598 1.597 1.598Zm8.626 13.93c3.515 0 5.623-2.301 5.623-6.135 0-3.77-2.172-6.134-5.623-6.134-3.514 0-5.623 2.3-5.623 6.134-.064 3.834 2.109 6.134 5.623 6.134Zm0-2.237c-1.853 0-2.939-1.406-2.939-3.898 0-2.428 1.086-3.898 2.94-3.898 1.852 0 2.939 1.406 2.939 3.898-.064 2.492-1.087 3.898-2.94 3.898Zm7.221 2.045h2.683V21.47c0-1.726 1.023-2.812 2.556-2.812 1.598 0 2.365.895 2.365 2.684v6.965h2.683v-7.604c0-2.812-1.405-4.409-4.025-4.409-1.726 0-2.94.83-3.515 2.109h-.191v-1.79h-2.556v11.758Z"/></g><defs><clipPath id="a"><path fill="#fff" d="M.304 0h115.272v40H.304z"/></clipPath></defs></svg>
